packages/kaspersky-hexa-ui-icons/src/iconsSVGs/48/Multidevice.svg

<svg xmlns="http://www.w3.org/2000/svg" width="48" height="48" fill="none" viewBox="0 0 48 48"><path fill="currentColor" fill-rule="evenodd" d="M48 0v13h-2V2H2v27h25v2H2v5h25v2h-9v8h9v2H12v-2h4v-8H0V0zM37 45h3v-2h-3zm-8-30h19v33H29zm17 31v-4H31v4zm0-6V21H31v19zM31 17v2h15v-2z" clip-rule="evenodd"/></svg>

<svg width="48" height="48" viewBox="0 0 48 48" fill="none" xmlns="http://www.w3.org/2000/svg">
<path fill-rule="evenodd" clip-rule="evenodd" d="M48 0V13H46V2H2V29H27V31H2V36H27V38H18V46H27V48H12V46H16V38H0V0H48ZM37 45H40V43H37V45ZM29 15H48V48H29V15ZM46 46V42H31V46H46ZM46 40V21H31V40H46ZM31 17V19H46V17H31Z"  fill="currentColor"/>
</svg>
